X:185
%%etbk:tnset id:58,pos:4,rep:3x,ant:
%%etbk:tnset id:183,pos:5,rep:2x-STOP,ant:
%%etbk:wsite http://www.thesession.org/tunes/display/75
%%etbk:pldat 2016-06-23T18:53,2016-06-22T15:48,2016-06-21T15:42,2016-06-18T16:29,2016-06-16T18:57,2016-05-05T15:16,2016-05-04T15:26,2016-05-02T19:11,2016-03-11T15:52,2016-03-09T15:31,2016-03-07T18:59,2016-03-05T15:50,2016-02-27T14:53,2016-02-23T17:20,2016-02-16T17:37,2016-02-10T16:26,2015-11-03T15:32,2015-10-28T16:33,2015-10-26T18:53,2015-10-24T14:15,2015-10-20T17:37,2015-10-06T16:23,2015-06-23T18:26,2015-06-18T18:48,2015-06-10T16:30,2015-03-13T18:34,2015-03-10T16:35,2015-03-05T18:13,2015-02-18T17:52,2015-02-11T17:16,2015-02-03T16:34,2014-11-05T18:12,2014-11-02T13:32,2014-10-29T15:49,2014-10-27T19:10,2014-10-24T18:40,2014-08-21T18:06,2014-08-18T18:29,2014-06-23T18:27,2014-06-07T16:45,2014-06-03T15:40,2014-03-06T18:46,2014-03-04T18:28,2014-03-01T16:02,2014-02-26T17:10,2014-02-18T16:32,2013-10-30T16:27,2013-10-28T18:45,2013-10-26T16:41,2013-10-18T16:32,2013-10-15T18:47,2013-10-10T19:46,2013-10-07T18:03
T: Miss McLeod's
Z: Piano Box Version by Martin Fleischmann
H: Created 2013-02-19 /  Last Modified 2013-02-19
M: 4/4
L: 1/8
R: reel
K: Gmaj
|: "G"!1!G2!3!BG !5!dGBG | !3!B!2!B!3!BA BcBA | !1!G2!3!BG !5!dGBG | "D"{c}!2!A!1!G!2!F!1!G !2!AcBA | 
"G"!1!G2!3!BG !5!dGBG |  !3!B3A !3!Bc!5!d2 | "C"!5!e!3!ccB !3!c!1!def | "D"!4!ge!1!d!3!B !2!AcBA:|
|: "G"!1!G2!4!gf !2!ede!4!g | !1!B2!3!BA BcBA | !1!G2!4!gf !2!ede!4!g | "D"!5!a2!3!ab !3!ag!1!e!3!f |
"G"!4!g2gf !2!ede!4!g | !1!B2!3!BA !3!Bc!5!d2 | "C"!5!e!3!ccB !3!c!1!def | "D"!4!ge!1!d!3!B !2!AcBA:|


